X:1772
T:Vid Lajksjön
O:Viksjö, Ångermanland
Q:1/4=155
M:3/4
L:1/8
K:G

z2 z (B, B,C)|:D2 D3 G|B,3 B, B,B,|C2 C3 E|A,6|A,2 A,3 G,|F2 F3 A,|D2 D3 G,|B,3 B, B,C|D2 D3 G,|B,3 B, B,B,|C2 C3 E|A,4 A,2|D2 (3CDC B,2|(3EFE D2 C2|1 B,6-|B,2 z B, B,C:|2 B,6-|B,4 z2|:G2 F2 E2|F2 G3 E|F2 E3 D| C2 AG FE|D2 D3 A,|D2 F3 D|C2 D3 E| D2 DC B,A,|G,2 B,2 D2|D2 G3 D|E2 E3 C|A,2 G,A, B,C|D2 (3CDC B,2|E2 (3DED C2|B,6-|B,4 z2:|
(:musicend:)
(:music:)
